svg/speak.svg

<?xml version="1.0" encoding="UTF-8"?>
<svg xmlns="http://www.w3.org/2000/svg" xmlns:xlink="http://www.w3.org/1999/xlink" width="32" height="32" viewBox="0 0 32 32">
<path fill-rule="nonzero" fill="rgb(0%, 0%, 0%)" fill-opacity="1" d="M 19.25 21.300781 C 16.949219 20.550781 17.601562 20 19.800781 19.148438 C 20.851562 18.75 20.199219 17.898438 20.25 17.25 C 20.25 16.949219 21.5 17 21.398438 15.800781 C 21.351562 14.949219 19.5 13.75 19 13.25 C 18.699219 12.949219 19.601562 12.148438 18.949219 11.449219 C 18.101562 10.5 17.949219 8.800781 17.449219 7.851562 C 17.449219 7.851562 17.851562 7.25 17.550781 6.898438 C 14.949219 4 5.300781 4.300781 2.800781 8.601562 C 0.0507812 13.449219 0 20.101562 5.75 23.699219 C 8.300781 25.300781 5.050781 31 5.050781 31 L 15.199219 31 C 15.199219 30.050781 14.050781 26.550781 16.050781 26.699219 C 17.75 26.851562 19.898438 26.75 19.699219 24.800781 C 19.648438 24.199219 19.601562 23.699219 20 23.199219 C 20.398438 22.75 21 21.851562 19.25 21.300781 M 21.550781 20.398438 L 31 21.648438 L 31 19.148438 Z M 29.25 28.550781 L 30.25 26.398438 L 21.550781 21.699219 Z M 30.25 14.398438 L 29.25 12.25 L 21.550781 19.050781 Z M 30.25 14.398438 "/>
</svg>

<svg role="img" viewBox="0 0 32 32" height="32" width="32" xmlns="http://www.w3.org/2000/svg"><path d="M19.25 21.3c-2.3-.75-1.648-1.3.55-2.152 1.052-.398.4-1.25.45-1.898 0-.3 1.25-.25 1.148-1.45-.046-.85-1.898-2.05-2.398-2.55-.3-.3.602-1.102-.05-1.8-.848-.95-1-2.65-1.5-3.598 0 0 .402-.602.1-.954C14.95 4 5.3 4.301 2.8 8.602.05 13.449 0 20.102 5.75 23.699 8.3 25.301 5.05 31 5.05 31H15.2c0-.95-1.15-4.45.85-4.3 1.7.152 3.848.05 3.65-1.9-.052-.6-.098-1.1.3-1.6.398-.45 1-1.348-.75-1.9m2.3-.902 9.45 1.25v-2.5Zm7.7 8.153 1-2.153-8.7-4.699Zm1-14.153-1-2.148-7.7 6.8Zm0 0"/></svg>
